X: 45
T: VALSE DU SOUVENIR
M: 3/4
L: 1/8
Q:1/4=60
K:G
|:DEF G2G|AGA B2B|BcB A2A|ABA G3:|!
|cef g2d|dcB A2A|ABc d2d|cBA G3|
